src/static/logos/pingdom.svg

<?xml version="1.0" encoding="UTF-8" standalone="no"?>
<svg width="512px" height="134px" viewBox="0 0 512 134" version="1.1" xmlns="http://www.w3.org/2000/svg" xmlns:xlink="http://www.w3.org/1999/xlink" preserveAspectRatio="xMidYMid">
	<g fill="#FFF000">
		<path d="M215.883294,24.8141717 C195.677469,24.8141717 179.371013,41.1206275 179.371013,61.326453 C179.371013,81.5322786 195.677469,97.8387343 215.883294,97.8387343 C222.264081,97.8387343 228.29038,96.0662934 233.253214,93.2303881 L233.253214,97.4842461 C233.253214,107.055427 225.454475,114.854166 215.883294,114.854166 C210.565972,114.854166 206.312114,119.108024 206.312114,124.425347 C206.312114,129.742669 210.565972,133.996527 215.883294,133.996527 C236.08912,133.996527 252.395575,117.690072 252.395575,97.4842461 L252.395575,61.326453 C252.395575,41.1206275 236.08912,24.8141717 215.883294,24.8141717 L215.883294,24.8141717 Z M215.883294,78.6963732 C206.312114,78.6963732 198.513374,70.8976335 198.513374,61.326453 C198.513374,51.7552725 206.312114,43.9565328 215.883294,43.9565328 C225.454475,43.9565328 233.253214,51.7552725 233.253214,61.326453 C233.253214,70.8976335 225.454475,78.6963732 215.883294,78.6963732 L215.883294,78.6963732 Z"></path>
		<path d="M36.8667694,24.8141717 C16.6609439,24.8141717 0.354488168,41.1206275 0.354488168,61.326453 L0.354488168,113.081725 C0.354488168,118.399048 4.60834618,122.652906 9.9256687,122.652906 C15.2429912,122.652906 19.4968492,118.399048 19.4968492,113.081725 L19.4968492,93.2303881 C24.8141717,96.0662934 30.4859824,97.8387343 36.8667694,97.8387343 C57.072595,97.8387343 73.3790507,81.5322786 73.3790507,61.326453 C73.0245625,41.1206275 56.7181068,24.8141717 36.8667694,24.8141717 L36.8667694,24.8141717 Z M36.8667694,78.6963732 C27.2955889,78.6963732 19.4968492,70.8976335 19.4968492,61.326453 C19.4968492,51.7552725 27.2955889,43.9565328 36.8667694,43.9565328 C46.43795,43.9565328 54.2366897,51.7552725 54.2366897,61.326453 C54.2366897,70.8976335 46.43795,78.6963732 36.8667694,78.6963732 L36.8667694,78.6963732 Z"></path>
		<path d="M138.959362,24.8141717 C118.753536,24.8141717 102.44708,41.1206275 102.44708,61.326453 L102.44708,88.2675538 C102.44708,93.5848763 106.700938,97.8387343 112.018261,97.8387343 C117.335584,97.8387343 121.589442,93.5848763 121.589442,88.2675538 L121.589442,61.326453 C121.589442,51.7552725 129.388181,43.9565328 138.959362,43.9565328 C148.530542,43.9565328 156.329282,51.7552725 156.329282,61.326453 L156.329282,88.2675538 C156.329282,93.5848763 160.58314,97.8387343 165.900462,97.8387343 C171.217785,97.8387343 175.471643,93.5848763 175.471643,88.2675538 L175.471643,61.326453 C175.117155,41.1206275 158.810699,24.8141717 138.959362,24.8141717 L138.959362,24.8141717 Z"></path>
		<path d="M370.440135,24.4596836 C350.23431,24.4596836 333.927854,40.7661393 333.927854,60.9719648 C333.927854,81.1777904 350.23431,97.4842461 370.440135,97.4842461 C390.645961,97.4842461 406.952416,81.1777904 406.952416,60.9719648 C406.952416,40.7661393 390.645961,24.4596836 370.440135,24.4596836 L370.440135,24.4596836 Z M370.440135,78.3418851 C360.868955,78.3418851 353.070215,70.5431454 353.070215,60.9719648 C353.070215,51.4007843 360.868955,43.6020446 370.440135,43.6020446 C380.011316,43.6020446 387.810055,51.4007843 387.810055,60.9719648 C387.810055,70.5431454 380.011316,78.3418851 370.440135,78.3418851 L370.440135,78.3418851 Z"></path>
		<path d="M320.102815,0 C314.785493,0 310.531635,4.25385801 310.531635,9.57118053 L310.531635,29.4225179 C305.568801,26.5866126 299.542502,24.8141717 293.161715,24.8141717 C272.955889,24.8141717 256.649433,41.1206275 256.649433,61.326453 C256.649433,81.5322786 272.955889,97.8387343 293.161715,97.8387343 C313.36754,97.8387343 329.673996,81.5322786 329.673996,61.326453 L329.673996,9.57118053 C329.673996,4.25385801 325.420138,0 320.102815,0 L320.102815,0 Z M293.161715,78.6963732 C283.590534,78.6963732 275.791794,70.8976335 275.791794,61.326453 C275.791794,51.7552725 283.590534,43.9565328 293.161715,43.9565328 C302.732895,43.9565328 310.531635,51.7552725 310.531635,61.326453 C310.531635,70.8976335 302.732895,78.6963732 293.161715,78.6963732 L293.161715,78.6963732 Z"></path>
		<g transform="translate(74.442515, 0.000000)">
			<path d="M12.761574,24.8141717 C7.44425152,24.8141717 3.19039351,29.0680297 3.19039351,34.3853523 L3.19039351,88.2675538 C3.19039351,93.5848763 7.44425152,97.8387343 12.761574,97.8387343 C18.0788966,97.8387343 22.3327546,93.5848763 22.3327546,88.2675538 L22.3327546,34.3853523 C21.9782664,29.0680297 17.7244084,24.8141717 12.761574,24.8141717 L12.761574,24.8141717 Z"></path>
			<ellipse cx="12.761574" cy="9.57118053" rx="9.57118053" ry="9.57118053"></ellipse>
		</g>
		<path d="M461.189106,97.1297579 C466.506429,97.1297579 470.760287,92.8758999 470.760287,87.5585774 L470.760287,47.5014145 C470.760287,45.3744855 472.532728,43.6020446 474.659657,43.6020446 C484.230837,43.6020446 492.029577,51.4007843 492.029577,60.9719648 L492.029577,87.9130656 C492.029577,93.2303881 496.283435,97.4842461 501.600757,97.4842461 C506.91808,97.4842461 511.171938,93.2303881 511.171938,87.9130656 L511.171938,60.9719648 C511.171938,40.7661393 494.865482,24.4596836 474.659657,24.4596836 C470.05131,24.4596836 465.442964,25.5231481 461.189106,26.9411007 C456.935248,25.1686599 452.68139,24.4596836 447.718556,24.4596836 C427.51273,24.4596836 411.206275,40.7661393 411.206275,60.9719648 L411.206275,87.9130656 C411.206275,93.2303881 415.460133,97.4842461 420.777455,97.4842461 C426.094778,97.4842461 430.348636,93.2303881 430.348636,87.9130656 L430.348636,60.9719648 C430.348636,51.4007843 438.147375,43.6020446 447.718556,43.6020446 C449.845485,43.6020446 451.617926,45.3744855 451.617926,47.5014145 L451.617926,87.9130656 C451.617926,92.8758999 455.871784,97.1297579 461.189106,97.1297579 L461.189106,97.1297579 Z"></path>
	</g>
</svg>

<svg width="512" height="134" xmlns="http://www.w3.org/2000/svg" preserveAspectRatio="xMidYMid"><g fill="#FFF000"><path d="M215.883 24.814c-20.206 0-36.512 16.307-36.512 36.512 0 20.206 16.306 36.513 36.512 36.513a35.231 35.231 0 0017.37-4.609v4.254c0 9.571-7.799 17.37-17.37 17.37a9.531 9.531 0 00-9.57 9.571 9.531 9.531 0 009.57 9.572c20.206 0 36.513-16.307 36.513-36.513V61.326c0-20.205-16.307-36.512-36.513-36.512zm0 53.882c-9.57 0-17.37-7.798-17.37-17.37 0-9.57 7.8-17.37 17.37-17.37 9.571 0 17.37 7.8 17.37 17.37 0 9.572-7.799 17.37-17.37 17.37zM36.867 24.814C16.66 24.814.354 41.121.354 61.326v51.756a9.531 9.531 0 009.572 9.57 9.531 9.531 0 009.57-9.57V93.23c5.318 2.836 10.99 4.609 17.37 4.609 20.207 0 36.513-16.307 36.513-36.513-.354-20.205-16.66-36.512-36.512-36.512zm0 53.882c-9.571 0-17.37-7.798-17.37-17.37 0-9.57 7.799-17.37 17.37-17.37 9.571 0 17.37 7.8 17.37 17.37 0 9.572-7.8 17.37-17.37 17.37zM138.96 24.814c-20.206 0-36.513 16.307-36.513 36.512v26.942a9.531 9.531 0 009.571 9.57 9.531 9.531 0 009.571-9.57V61.326c0-9.57 7.8-17.37 17.37-17.37 9.572 0 17.37 7.8 17.37 17.37v26.942a9.531 9.531 0 009.571 9.57 9.531 9.531 0 009.572-9.57V61.326c-.355-20.205-16.661-36.512-36.513-36.512zm231.48-.354c-20.206 0-36.512 16.306-36.512 36.512s16.306 36.512 36.512 36.512 36.512-16.306 36.512-36.512S390.646 24.46 370.44 24.46zm0 53.882c-9.571 0-17.37-7.799-17.37-17.37 0-9.571 7.799-17.37 17.37-17.37 9.571 0 17.37 7.799 17.37 17.37 0 9.571-7.799 17.37-17.37 17.37zM320.103 0a9.531 9.531 0 00-9.571 9.571v19.852a35.231 35.231 0 00-17.37-4.609c-20.206 0-36.513 16.307-36.513 36.512 0 20.206 16.307 36.513 36.513 36.513s36.512-16.307 36.512-36.513V9.571A9.531 9.531 0 00320.103 0zm-26.941 78.696c-9.571 0-17.37-7.798-17.37-17.37 0-9.57 7.799-17.37 17.37-17.37 9.57 0 17.37 7.8 17.37 17.37 0 9.572-7.8 17.37-17.37 17.37z"/><g transform="translate(74.443)"><path d="M12.762 24.814a9.531 9.531 0 00-9.572 9.571v53.883a9.531 9.531 0 009.572 9.57 9.531 9.531 0 009.57-9.57V34.385c-.354-5.317-4.608-9.57-9.57-9.57z"/><circle cx="12.762" cy="9.571" r="9.571"/></g><path d="M461.19 97.13a9.531 9.531 0 009.57-9.571V47.5c0-2.127 1.773-3.899 3.9-3.899 9.57 0 17.37 7.799 17.37 17.37v26.941a9.531 9.531 0 009.57 9.571 9.531 9.531 0 009.572-9.57V60.971c0-20.206-16.307-36.512-36.512-36.512-4.609 0-9.217 1.063-13.47 2.481-4.255-1.772-8.509-2.481-13.471-2.481-20.206 0-36.513 16.306-36.513 36.512v26.941a9.531 9.531 0 009.571 9.571 9.531 9.531 0 009.572-9.57V60.971c0-9.571 7.798-17.37 17.37-17.37 2.126 0 3.899 1.772 3.899 3.9v40.411c0 4.963 4.254 9.217 9.571 9.217z"/></g></svg>
